icon-themes/breeze_svg/cmd/sc_smallestheight.svg

<svg viewBox="0 0 16 16" xmlns="http://www.w3.org/2000/svg">/&gt;<path d="m2 2v2.09375l2 2v-4.09375zm3 0v4.09375l2-2v-2.09375zm-3 3.5v8.5h5v-8.5l-2.28125 2.3125-.21875.1875-.21875-.1875zm7 2.5v6h5v-6z" fill="#4d4d4d"/></svg>

<svg xmlns="http://www.w3.org/2000/svg" viewBox="0 0 16 16">
     />
 <path 
     style="fill:#4d4d4d" 
     d="M 2 2 L 2 4.09375 L 4 6.09375 L 4 2 L 2 2 z M 5 2 L 5 6.09375 L 7 4.09375 L 7 2 L 5 2 z M 2 5.5 L 2 14 L 7 14 L 7 5.5 L 4.71875 7.8125 L 4.5 8 L 4.28125 7.8125 L 2 5.5 z M 9 8 L 9 14 L 14 14 L 14 8 L 9 8 z "
     />
 </svg>
